packages/ffe-icons/icons/open/400/sm/playlist_add_check.svg

<svg xmlns="http://www.w3.org/2000/svg" height="20" viewBox="0 -960 960 960" width="20"><path d="M180.283-348Q165-348 154.5-358.289q-10.5-10.29-10.5-25.5Q144-399 154.338-409.5 164.677-420 179.96-420h215.757Q411-420 421.5-409.711q10.5 10.29 10.5 25.5Q432-369 421.662-358.5 411.323-348 396.04-348H180.283Zm.006-150Q165-498 154.5-508.289q-10.5-10.29-10.5-25.5Q144-549 154.342-559.5q10.343-10.5 25.632-10.5h359.737Q555-570 565.5-559.711q10.5 10.29 10.5 25.5Q576-519 565.658-508.5 555.315-498 540.026-498H180.289Zm0-150Q165-648 154.5-658.289q-10.5-10.29-10.5-25.5Q144-699 154.342-709.5q10.343-10.5 25.632-10.5h359.737Q555-720 565.5-709.711q10.5 10.29 10.5 25.5Q576-669 565.658-658.5 555.315-648 540.026-648H180.289ZM651.2-249q-7.2 0-14.2-3-7-3-12-8l-92-91q-11-11-11-25t11-25q11-11 25.5-11t25.5 11l59 59 145-145q11-11 25-10.5t25.478 11.5Q849-475 849-460.5T838-435L676-261q-5 5-11.3 8.5-6.3 3.5-13.5 3.5Z"/></svg>

<svg xmlns="http://www.w3.org/2000/svg" height="20" viewBox="0 -960 960 960" width="20"><path d="M180.28-348q-15.28 0-25.78-10.29-10.5-10.29-10.5-25.5t10.34-25.71q10.34-10.5 25.62-10.5h215.76q15.28 0 25.78 10.29 10.5 10.29 10.5 25.5t-10.34 25.71Q411.32-348 396.04-348H180.28Zm.01-150q-15.29 0-25.79-10.29t-10.5-25.5q0-15.21 10.34-25.71t25.63-10.5h359.74q15.29 0 25.79 10.29t10.5 25.5q0 15.21-10.34 25.71T540.03-498H180.29Zm0-150q-15.29 0-25.79-10.29t-10.5-25.5q0-15.21 10.34-25.71t25.63-10.5h359.74q15.29 0 25.79 10.29t10.5 25.5q0 15.21-10.34 25.71T540.03-648H180.29ZM651.2-249q-7.2 0-14.2-3-7-3-12-8l-92-91q-11-11-11-25t11-25q11-11 25.5-11t25.5 11l59 59 145-145q11-11 25-10.5t25.48 11.5Q849-475 849-460.5T838-435L676-261q-5 5-11.3 8.5-6.3 3.5-13.5 3.5Z"/></svg>
